X:1
T:Title
%%score { ( 1 4 ) | ( 2 3 ) }
L:1/8
Q:1/4=100
M:6/8
K:Eb
V:1 treble nm="Grand Piano"
V:4 treble 
V:2 bass 
V:3 bass 
V:1
 [EGB][Gc][GB] [B,EG]FE | DAA [B,DA]cc | [DAc]dc [DA]GF | EBB [EGB]cc | [EGB]cd [EBe]BG | %5
w: Ira~B.~Wilson * * * * *|||||
 [CEF]cc [FAc]ff | edc [Ge]BG | GFc .[B,DB]3 | z GG z Ge | z BB z FF | z AA [Dd]2 [Ac] | %11
w: ||||||
 z [EG][EG] z GG | z GG z Ge | [Dd]3 F3 | [EF]3 .[Ec]3 | B6 | z GG z Ge | z BB z FF | %18
w: |||||||
 z AA [Dd]2 [Ac] | z [EG][EG] z GG | z BB z GG | z AA GAE | G3 .G3 | [G,B,E]6 |] %24
w: ||||||
V:2
 z EE z A,G, | z [B,D][B,D] z[K:treble] [DA][DA] | z[K:treble] [DA][DA][K:bass] F,[B,D][A,D] | %3
 z[K:treble] [EG][EG][K:bass] z[K:treble] [EG][EG] | z[K:treble] [EG][EG][K:bass] z EE | %5
 z[K:treble] [FA][FA][K:bass] z[K:treble] [Ac][Ac] | [=A,_G]-[A,-DG-][A,EG][K:bass] z G,E, | %7
 [F,B,E][F,B,D][F,=A,E] z[K:treble] FA | z EE z E[EG] | z[K:treble] AA[K:bass] z DD | %10
 [F,,F,]3 z[K:treble] AC | E,,=A,,B,, G,[F,E][E,E] | z EE z[K:treble] E[EG] | %13
 z[K:treble] FF[K:bass] z B,B, | F,,F,F, F,,F,[F,=A,F] | B,,=E,F, CB,A, | z EE z[K:treble] E[EG] | %17
 z[K:treble] AA[K:bass] [B,,,B,,]3 | [F,,F,]3 z[K:treble] AC | E,,=A,,B,, G,[F,E][E,E] | %20
 z[K:treble] GG[K:bass] z E[B,E] | z EE [=E,_D][F,C][A,=B,] | z B,B, z B,A, | E,,B,,G,, .E,,3 |] %24
V:3
 [E,B,]3 B,,3 | [F,,F,]3 [B,,,B,,]3[K:treble] | [F,,F,]3[K:treble][K:bass] B,,3 | %3
 [E,G,]3[K:treble][K:bass] [B,,B,]3[K:treble] | [E,,E,]3[K:treble][K:bass] [G,,G,]3 | %5
 [A,,A,]3[K:treble][K:bass] [F,,F,]3[K:treble] | .C3[K:bass] B,3 | z3 B,,3[K:treble] | %8
 [E,,E,]3 [B,,,B,,]3 | [F,,F,]3[K:treble][K:bass] [B,,,B,,]3 | z3 [B,,,B,,]3[K:treble] | x6 | %12
 [E,,E,]3 [E,,E,]3[K:treble] | [F,,F,]3[K:treble][K:bass] [F,,F,]3 | x6 | x6 | %16
 [E,,E,]3 [B,,,B,,]3[K:treble] | [F,,F,]3[K:treble][K:bass] z3 | z3 [B,,,B,,]3[K:treble] | x6 | %20
 [G,,G,]3[K:treble][K:bass] [E,,E,]3 | [A,,A,]3 z3 | B,,3 [B,,,B,,]3 | x6 |] %24
V:4
 x6 | x6 | x6 | x6 | x6 | x6 | x6 | x6 | [B,B]3 .[Cc]3 | [Dd]3 [A,A]3 | [Cc]3 z3 | [B,B]6 | %12
 [B,B]3 .[Cc]3 | z BB z DD | z =A,A, z A,d | z _D=D AGF | [B,B]3 .[Cc]3 | [Dd]3 [A,A]3 | [Cc]3 z3 | %19
 [B,B]6 | [Ee]3 .B3 | [Cc]3 z3 | z EE z D[DF] | .E,3 z3 |] %24

